archdroid-icon-theme/Archdroid-BrownDark/status/scalable/checkbox-checked.svg

<svg fill="#3E2723" height="48" viewBox="0 0 48 48" width="48" xmlns="http://www.w3.org/2000/svg"><path d="m10 6c-2.21 0-4 1.79-4 4v28c0 2.21 1.79 4 4 4h28c2.21 0 4-1.79 4-4v-28c0-2.21-1.79-4-4-4zm0 4h28v28h-28zm23.574219 5.585938-13.001953 12.255859-6.146485-5.792969-2.425781 2.28711 8.572266 8.078125 15.427734-14.542969z" fill="#3E2723"/></svg>

<svg fill="#3E2723" height="48" version="1.1" viewBox="0 0 48 48" width="48" xmlns="http://www.w3.org/2000/svg"><path d="M10 6C7.79 6 6 7.79 6 10l0 28c0 2.21 1.79 4 4 4l28 0c2.21 0 4-1.79 4-4L42 10C42 7.79 40.21 6 38 6L10 6Zm0 4l28 0 0 28-28 0 0-28zM33.574219 15.585938L20.572266 27.841797 14.425781 22.048828 12 24.335938 20.572266 32.414063 36 17.871094 33.574219 15.585938Z"/></svg>
